X: 7966
T: Congress, The
R: reel
M: 4/4
K: Adorian
|:(3Bcd|eAAG A2 (3Bcd|eaaf gedg|eA A2 EA A2|BAGA BA (3Bcd|
eAAG A2 (3Bcd|eaaf gedB|c3d e3d|cABG A2 (3Bcd:|
|:eaag a3g|eaag e2 dg|e2 dg e2 dg|eaaf gedg|
eaag a3g|eaag e2 dB|c3d e3d|cABG A2 (3Bcd:|

